X:1
T:Title
%%score 1 2 3 4
L:1/8
M:4/2
K:C
V:1 treble nm="Part_1"
V:2 treble-8 nm="Part_2"
V:3 treble-8 nm="Part_3"
V:4 bass nm="Part_4"
V:1
 z16 | z16 | G16- | G8 G8 | A12 G2 F2 | G2 F2 E2 D2 E8 | D6 E2 F2 G2 A4- | A2 G2 G8 ^F4 | G16 | %9
 z8 B8 | c12 B2 A2 | G6 F2 G8 | F4 G2 A2 _B4 A4- | A2 G2 G8 ^F4 | G16 | z16 | z4 G8 F4- | %17
 F4 E4 D8 | (C8 F8) | E6 F2 G4 A4- | A4 G2 F2 G8 | F8 z8 | z16 | G6 A2 B2 c2 d4- | d4 c8 B4 | %25
 c8 z8 | z16 | z16 | z16 | d6 c2 B4 A4- | A4 G8 ^F4 | G8 z4 (3:2:1G6- | (3:2:2G2 F4 G4 E4 F4 | %33
 G4 A6 G2 F2 E2 | D4 z4 z8 | z16 | z16 | z16 | (G8 A8) | B6 A2 B2 c2 d4- | %40
 d2 c2 B2 A2 B2 A2 G2 F2 | E6 F2 G4 A4- | A2 G2 F2 E2 D4 A4- | A4 G8 ^F4 | G16- | G16 || z16 | %47
 z16 | z16 | z16 | z16 | G16 | A16 | B6 A2 B2 c2 d4- | d2 c2 c8 B4 | c16 | z8 G8- | G4 E4 E8- | %58
 E8 A8 | G4 A8 G2 F2 | E16 | z16 | z16 | z8 z4 G4 | A4 B4 c4 A4 | B4 d6 c2 B2 A2 | B12 A4- | %67
 A2 G2 G8 ^F4 | G16- | G8 F8 | E6 F2 E4 A4- | A4 G2 F2 E8 | D8 z8 | c16- | c16 | A16- | A16 | %77
 B4 G2 A2 B2 c2 d4- | d2 c2 c8 B4 | c6 B2 A4 G4 | F16- | F16 | E16 | z8 A8 | B8 G4 A4- | %85
 A2 G2 G8 ^F4 | G16- | G8 E8 | E16 | D16 || G8 G6 F2 | G4 A8 G2 F2 | E6 F2 G4 A4- | %93
 A2 G2 F2 E2 D4 C4 | E8 D8 | E12 C4 | C16 | z16 | z16 | z16 | z16 | (G16 | A16) | B16 | c16 | %105
 B4 G4 A8 | G6 F2 G2 A2 B4- | B4 A8 ^G4 | A16 | z8 A8 | B4 G8 F2 E2 | D4 E6 F2 G4 | z4 F6 G2 A4 | %113
 D8 z8 | z16 | z16 | z16 | z16 | z16 | z16 | z16 | E6 F2 G4 A4- | A2 G2 F2 E2 F4 G4 | (D8 E8) | %124
 D4 A6 G2 F2 E2 | F2 E2 D2 C2 D4 A4- | A2 G2 G8 ^F4 | G6 A2 B2 c2 d2 B2 | c6 B2 A4 G4 | F4 G8 ^F4 | %130
 G16 |] %131
V:2
 d16- | d8 d8 | e12 d2 c2 | B6 A2 B8 | A6 B2 c2 d2 e4- | e2 d2 d8 ^c4 | d12 c2 B2 | %7
 c2 B2 A2 G2 A8 | G16 | z16 | z16 | z16 | d12 d4- | d4 c2 _B2 A8 | G6 A2 B2 c2 d4- | d2 c2 c8 B4 | %16
 c4 B2 A2 G4 B4- | B2 c2 A4 G8 | z16 | z16 | z16 | z16 | z16 | d16- | d8 d8 | e6 c2 B4 A4- | %26
 A2 G2 G8 F4 | A16- | A8 A8 | B8 G4 A4 | B4 c4 d8- | d8 z8 | c6 B2 c4 A4 | B4 c4 (3:2:2d8 c4 | %34
 B2 A2 G4 z8 | z16 | z16 | z16 | z16 | d6 c2 B2 A2 B4 | G2 A2 B2 c2 d4 B4 | c6 BA G4 F4 | %42
 A8 G4 A4 | B4 c4 d8 | d4 e8 d2 c2 | B16 || z16 | z16 | z16 | c16 | d16 | e6 d2 e2 f2 g4- | %52
 g4 f2 e2 f8 | g12 f2 e2 | f2 e2 d2 c2 d8 | c4 (3:2:2f8 e4 d2 c2 | B4 c8 B4 | c12 B2 A2 | G8 z8 | %59
 z16 | z8 e8- | (e4 f8) e2 d2 | c6 d2 e4 d4 | B8 z8 | z8 A8 | d6 c2 B2 A2 G4 | d16 | B4 c4 d6 c2 | %68
 B2 A2 G2 A2 B2 c2 d4- | d4 c8 B4 | c6 d2 e4 f4 | e2 d2 d8 ^c4 | d8 z4 d4 | e6 f2 g2 a2 g4- | %74
 g2 f2 e2 d2 c6 d2 | e4 f4 e4 f4- | f2 d2 g8 ^f4 | g12 f4 | e4 d2 c2 d8 | (c8 e8) | %80
 d4 f6 e2 d2 c2 | d4 c8 B4 | c16 | d4 B4 c8 | B12 A4 | B4 c4 d8 | B4 c8 B4 | c12 B2 A2 | (G8 (c8) | %89
 B16) || z8 c8- | c16 | c8 c8 | c8 d4 e4- | e2 d2 c8 B4 | c16 | z16 | z16 | z16 | z16 | z8 d8 | %101
 e6 d2 c4 B4 | A4 d6 c2 B2 A2 | G4 g6 f2 e2 d2 | c6 d2 e4 f4- | f2 e2 e8 d4 | e12 d2 c2 | %107
 d2 c2 B2 A2 B8 | A16 | (d8 c8) | B12 c4 | d4 G4 c4 B4 | c4 A4 d4 c4 | (3:2:2B8 c4 d4 e4- | %114
 e2 d2 c2 B2 A4 f4- | f2 e2 e8 d4 | e4 g6 f2 e2 d2 | e4 d8 c4 | d4 f6 e2 d2 c2 | d4 e6 d2 c2 B2 | %120
 A2 G2 c8 B4 | c4 e6 d2 c2 B2 | A4 f8 (3:2:1e6- | (3:2:2e2 d4 d8 ^c4 | d8 z4 A4 | d8 G4 A4 | %126
 B4 c4 d8 | z8 g8- | g4 f4 e8 | d16- | d16 |] %131
V:3
 z16 | z16 | z16 | z16 | z16 | z16 | z16 | z16 | G16- | G8 G8 | A12 G2 F2 | G2 F2 E2 D2 E8 | D16- | %13
 D16 | z16 | z16 | G6 A2 B2 c2 d4- | d4 c8 B4 | c16- | c16 | c8 c8 | d12 c2 B2 | c2 B2 A2 G2 A8 | %23
 G16 | z4 G4 A4 B4 | G12 F4 | E4 F4 D6 E2 | F4 (E8 F4-) | F4 E2 D2 E4 F4 | G6 A2 B4 c4 | (G8 A8) | %31
 G16 | z16 | z16 | G6 F2 G4 E4 | F4 G4 A6 G2 | F2 E2 D8 d4- | d2 c2 B2 A2 B4 A4- | A2 G2 G8 ^F4 | %39
 G16- | G16 | G4 c4 B4 A4 | d12 c4 | B4 G4 A8 | G16- | G16 || z16 | z16 | G16 | A16 | B16 | c16- | %52
 c16 | z16 | z16 | z16 | z16 | c16- | c16 | c16 | c16 | A16- | A16 | G6 F2 E2 D2 E4- | %64
 E2 D2 G8 A4 | G6 A2 B2 c2 d4- | d2 c2 B2 A2 G4 F4 | (G8 A8) | G16 | z16 | c16 | A16 | B16 | %73
 c6 d2 e2 f2 e4- | e2 d2 c2 B2 A6 B2 | c4 d4 c4 d4- | d4 c2 B2 A8 | G16 | z8 d8 | %79
 (3:2:2e8 d4 c4 B4 | A16 | F16 | G6 F2 G4 A4- | A2 G2 G8 F4 | G6 A2 B4 c4 | (G8 (A8) | G16-) | %87
 G16 | G16 | G16 || z16 | z16 | z16 | z16 | z8 G8 | G6 F2 G4 A4- | A4 G2 F2 E6 F2 | G4 A4 F4 G4 | %98
 C6 E2 D8 | C2 D2 E2 F2 G4 (3:2:1A6- | (3:2:2A2 G4 c8 B4 | c8 z8 | z16 | G16 | A16 | G4 E4 F8 | %106
 E16- | E16 | F12 E4 | D4 G8 F4 | G16- | G16 | A16 | B16 | c16 | B4 G4 A8 | G6 F2 G2 A2 B4- | %117
 B2 A2 A8 G4 | A8 z8 | z16 | z16 | z16 | z16 | z16 | A6 B2 c4 d4- | d2 c2 B2 A2 B4 c4 | (G8 A8) | %127
 G8 d8 | e6 d2 c4 B4 | A4 G4 A8 | G16 |] %131
V:4
 z16 | z16 | z16 | z16 | z16 | z16 | D,16- | D,8 D,8 | E,12 D,2 C,2 | B,,6 A,,2 B,,8 | %10
 A,,6 B,,2 C,2 D,2 E,4- | E,2 D,2 D,8 C,4 | D,8 z4 D,4 | _B,,4 G,,4 D,8 | G,,4 G,8 F,4 | %15
 E,4 D,2 C,2 D,8 | C,8 z8 | z8 G,8 | E,4 F,8 E,2 D,2 | C,6 D,2 E,4 F,4- | F,4 E,2 D,2 E,8 | %21
 D,6 E,2 F,2 G,2 A,4- | A,2 G,2 G,8 ^F,4 | G,8 z4 G,4- | G,4 F,2 E,2 F,4 G,4 | C,6 D,2 E,4 D,4 | %26
 C,4 D,4 B,,8 | A,,6 B,,2 C,4 D,4 | D,4 C,2 B,,2 C,4 D,4 | G,,4 G,8 F,4 | (E,8 D,8) | G,,16 | z16 | %33
 z16 | z4 C,6 B,,2 C,4 | A,,4 B,,4 C,4 D,4- | D,2 C,2 B,,2 A,,2 G,,8 | D,12 C,4- | C,4 B,,4 A,,8 | %39
 G,,16 | G,,8 G,,8 | C,6 D,2 E,4 F,4- | F,2 E,2 D,2 C,2 B,,4 A,,4 | (E,8 D,8) | G,,16- | G,,16 || %46
 C,16 | D,6 C,2 D,2 E,2 F,4- | F,4 E,2 D,2 E,8 | F,8 z4 F,4 | D,4 (3:2:2G,8 F,4 E,2 D,2 | %51
 C,12 B,,4 | A,,6 G,,2 A,,8 | G,,16 | z8 G,8 | (A,8 (F,8) | G,16) | C,16- | C,8 F,8 | %59
 E,4 F,8 E,2 D,2 | C,8 z4 C,4- | (C,4 D,8) C,2 B,,2 | A,,6 B,,2 C,4 D,4 | E,6 D,2 C,2 B,,2 C,4- | %64
 C,4 B,,4 A,,8 | G,,16 | z4 G,8 D,4 | (E,8 D,8) | z4 G,8 F,4 | E,4 D,2 C,2 D,8 | (C,8 A,,8) | z16 | %72
 G,16 | C,16 | z16 | z16 | z16 | G,,16- | G,,8 G,,8 | C,16 | D,6 C,2 D,2 E,2 F,4- | %81
 F,2 E,2 D,2 C,2 D,8 | C,16 | B,,8 A,,8 | G,,4 G,8 F,4 | (E,8 D,8) | E,16 | C,16- | C,16 | G,,16 || %90
 z16 | z16 | z16 | z16 | z16 | C,16- | C,16 | C,8 D,4 (3:2:1E,6- | (3:2:2E,2 D,4 C,8 B,,4 | %99
 C,4 G,8 F,4- | F,2 E,2 D,2 C,2 D,8 | C,16 | z16 | z16 | z16 | z16 | z16 | z16 | z4 D,8 C,4 | %109
 B,,4 G,,4 A,,8 | G,,12 A,,4 | B,,4 C,6 D,2 E,4 | C,4 D,6 E,2 F,4 | G,16 | A,16 | G,4 E,4 F,8 | %116
 E,6 D,2 E,2 F,2 G,4- | G,4 F,4 E,8 | D,6 E,2 F,4 G,4- | G,2 F,2 E,2 D,2 E,4 F,4 | (C,8 D,8) | %121
 C,16 | z16 | z16 | D,2 E,2 F,2 G,2 A,4 D,4- | D,4 G,8 F,4 | (E,8 D,8) | G,16 | C,16 | D,16 | %130
 G,,16 |] %131

